symbols/web/analytics/materialsymbolsoutlined/analytics_wght200fill1_40px.svg

<svg xmlns="http://www.w3.org/2000/svg" height="40" width="40"><path d="M12.917 27.542h1.416v-7.584h-1.416Zm12.75 0h1.416V11.458h-1.416Zm-6.375 0h1.416v-4.167h-1.416Zm0-7.584h1.416v-3.083h-1.416ZM9.083 33.333q-1 0-1.708-.708t-.708-1.708V9.083q0-1 .708-1.708t1.708-.708h21.834q1 0 1.708.708t.708 1.708v21.834q0 1-.708 1.708t-1.708.708Z"/></svg>

<svg xmlns="http://www.w3.org/2000/svg" height="40" width="40"><path d="M9.083 33.333Q8.083 33.333 7.375 32.625Q6.667 31.917 6.667 30.917V9.083Q6.667 8.083 7.375 7.375Q8.083 6.667 9.083 6.667H30.917Q31.917 6.667 32.625 7.375Q33.333 8.083 33.333 9.083V30.917Q33.333 31.917 32.625 32.625Q31.917 33.333 30.917 33.333ZM12.917 27.542H14.333V19.958H12.917ZM25.667 27.542H27.083V11.458H25.667ZM19.292 27.542H20.708V23.375H19.292ZM19.292 19.958H20.708V16.875H19.292Z"/></svg>
